src/22x22/places/folder-gruvbox-mix-red-documents-open.svg

<?xml version="1.0" encoding="UTF-8"?>
<svg width="22" height="22" version="1" xmlns="http://www.w3.org/2000/svg">
 <rect x="1" y="8.5" width="20" height="12" rx="1" ry="1" opacity=".2"/>
 <path d="m1 16c0 0.554 0.446 1 1 1h18c0.554 0 1-0.446 1-1v-11c0-0.554-0.446-1-1-1h-9c-1.5 0-2-2-3.5-2h-5.5c-0.554 0-1 0.446-1 1" fill="#af2528"/>
 <rect x="1" y="9.5" width="20" height="10" rx="1" ry="1" opacity=".2"/>
 <rect x="3" y="6" width="16" height="8" rx="1" ry="1" fill="#f1d9b5"/>
 <rect x="1" y="10" width="20" height="10" rx="1" ry="1" fill="#f2594b"/>
 <path d="m2 2c-0.554 0-1 0.446-1 1v0.5c0-0.554 0.446-1 1-1h5.5c1.5 0 2 2 3.5 2h9c0.554 0 1 0.446 1 1v-0.5c0-0.554-0.446-1-1-1h-9c-1.5 0-2-2-3.5-2z" fill="#f1d9b5" opacity=".1"/>
 <path d="m8.5 12c-0.277 0-0.5 0.223-0.5 0.5v6c0 0.277 0.223 0.5 0.5 0.5h5c0.277 0 0.5-0.223 0.5-0.5v-4.5l-2-2z" fill="#4c3432"/>
</svg>

<svg xmlns="http://www.w3.org/2000/svg" width="22" height="22" version="1">
 <rect style="opacity:0.2" width="20" height="12" x="1" y="8.5" rx="1" ry="1"/>
 <path style="fill:#af2528" d="M 1,16 C 1,16.554 1.446,17 2,17 H 20 C 20.554,17 21,16.554 21,16 V 5 C 21,4.446 20.554,4 20,4 H 11 C 9.5,4 9,2 7.5,2 H 2 C 1.446,2 1,2.446 1,3"/>
 <rect style="opacity:0.2" width="20" height="10" x="1" y="9.5" rx="1" ry="1"/>
 <rect style="fill:#f1d9b5" width="16" height="8" x="3" y="6" rx="1" ry="1"/>
 <rect style="fill:#f2594b" width="20" height="10" x="1" y="10" rx="1" ry="1"/>
 <path style="opacity:0.1;fill:#f1d9b5" d="M 2,2 C 1.446,2 1,2.446 1,3 V 3.5 C 1,2.946 1.446,2.5 2,2.5 H 7.5 C 9,2.5 9.5,4.5 11,4.5 H 20 C 20.554,4.5 21,4.946 21,5.5 V 5 C 21,4.446 20.554,4 20,4 H 11 C 9.5,4 9,2 7.5,2 Z"/>
 <path style="fill:#4c3432" d="M 8.5,12 C 8.223,12 8,12.223 8,12.5 V 18.5 C 8,18.777 8.223,19 8.5,19 H 13.5 C 13.777,19 14,18.777 14,18.5 V 14 L 12,12 Z"/>
</svg>
